!!!OTL: SCHOENE AUGEN SCHOENE STRAHLEN
!!!ARE: Europa, Mitteleuropa, Deutschland
!!!SCT: F0022
!!!YEM: Copyright 1995, estate of Helmut Schaffrath.
**kern
*ICvox
*Ivox
*M3/4
*k[]
*C:
=1
{8c
8B
8c
8A
8G
8A
=2
4G
4F
4E}
=3
{8c
8B
8c
8A
8G
8A
=4
4G
4F
4E}
=5
{8c
8c
8d
8d
8e
8e}
=6
{8c
8c
8d
8d
8e
8e}
=7
{4c
8e
8d
8c
8B
=8
4B
8c
4.r}
==
!!!AGN: Liebes - Lied, Klage, Untreue
!!!ONB: ESAC (Essen Associative Code) Database: FINK
!!!AMT: simple triple
!!!AIN: vox
!!!EED: Helmut Schaffrath
!!!EEV: 1.0
*-
